EdiMM/images/3color.svg

<svg xmlns="http://www.w3.org/2000/svg" width="24" height="24" viewBox="0 0 24 24"><path fill="none" d="M0 0h24v24H0V0z"/><path d="M7 14c-1.66 0-3 1.34-3 3 0 1.31-1.16 2-2 2 .92 1.22 2.49 2 4 2 2.21 0 4-1.79 4-4 0-1.66-1.34-3-3-3zm13.71-9.37l-1.34-1.34c-.39-.39-1.02-.39-1.41 0L9 12.25 11.75 15l8.96-8.96c.39-.39.39-1.02 0-1.41z"/></svg>

<svg width="24" height="24" viewBox="0 0 24 24" fill="none" xmlns="http://www.w3.org/2000/svg">
<path d="M7 14C5.34 14 4 15.34 4 17C4 18.31 2.84 19 2 19C2.92 20.22 4.49 21 6 21C8.21 21 10 19.21 10 17C10 15.34 8.66 14 7 14ZM20.71 4.63L19.37 3.29C18.98 2.9 18.35 2.9 17.96 3.29L9 12.25L11.75 15L20.71 6.04C21.1 5.65 21.1 5.02 20.71 4.63V4.63Z" fill="white"/>
</svg>
